!!!SOCIAL_FUNCTION:	memorial ceremony songs
!!!PDT:	1932
!!!OTL: No_20_Memorial_Ceremony_Song_(a).krn
!!!REG: Southwest
!!!LANG: Non-Tone
!!!LING_GROUP: Yuman-Cochimi
**kern
*staff1
=1-
=
*clefF4
*k[b-e-]
*M2/4
2D\
=2
4En\
8E\L
8F\J
=3||
*M3/4
2.D\
=4||
*M2/4
4En\
8E\L
8F\J
=5||
*M3/4
2.D\
=6||
*M2/4
8D\L
8F\J
4D\
=7
4.r
8D\
=8
8D\L
8F\J
4D\
=9||
*M3/4
2BB-/
4r
=10||
*M2/4
8D\L
8D\J
4D\
=11
2BB-/
=12
8D\L
8D\J
4D\
=13||
*M3/4
2.BB-/
=14||
*M2/4
8BB-/L
8D/J
8BB-/
8r
=15
8r
8D\
8E-\L
8F\J
=16:|!
=
*M3/4
8BB-/L
8D/J
8BB-/
8r
4r
=17||
*M2/4
8D\L
8D\J
4BB-/
=18
8D\L
8D\J
4D\
=19
8D\L
8D\J
4D\
=20||
*M3/4
8BB-/L
8D/J
2r
=21||
*M2/4
8BB-/L
8D/J
4D\
=22
8D\L
8D\J
8D\
8r
=23
4BB-/
4D\
=24
8D\L
8D\J
4D\
=25
2D\
=26
4D\
4D\
=27
4BB-/
4BB-/
=28
4D\
4D\
=29
4BB-/
4r
=30
4D\
4D\
=31
[2BB-/
=32
2BB-/]
=33
8BB-/L
8D/J
8BB-/
8r
==
*-
